src/16/panel/exaile-pause.svg

<svg xmlns="http://www.w3.org/2000/svg" width="16" height="16"><defs><style id="current-color-scheme" type="text/css"></style></defs><path d="M8 1C4.122 1 1 4.122 1 8s3.122 7 7 7 7-3.122 7-7-3.122-7-7-7zM6 5c.554 0 1 .892 1 2v2c0 1.108-.446 2-1 2s-1-.892-1-2V7c0-1.108.446-2 1-2zm4 0c.554 0 1 .892 1 2v2c0 1.108-.446 2-1 2s-1-.892-1-2V7c0-1.108.446-2 1-2z" fill="currentColor" color="#bebebe"/></svg>

<svg xmlns="http://www.w3.org/2000/svg" width="16" height="16" version="1.1">
 <defs>
  <style id="current-color-scheme" type="text/css">
   .ColorScheme-Text { color:#dfdfdf; } .ColorScheme-Highlight { color:#4285f4; }
  </style>
 </defs>
 <path style="fill:currentColor" class="ColorScheme-Text" d="M 8 1 C 4.122 1 1 4.122 1 8 C 1 11.878 4.122 15 8 15 C 11.878 15 15 11.878 15 8 C 15 4.122 11.878 1 8 1 z M 6 5 C 6.554 5 7 5.892 7 7 L 7 9 C 7 10.108 6.554 11 6 11 C 5.446 11 5 10.108 5 9 L 5 7 C 5 5.892 5.446 5 6 5 z M 10 5 C 10.554 5 11 5.892 11 7 L 11 9 C 11 10.108 10.554 11 10 11 C 9.446 11 9 10.108 9 9 L 9 7 C 9 5.892 9.446 5 10 5 z"/>
</svg>
